X:3490
T:Lady Mary Ramsey
O:england
R:Strathspey
M:4/4
L:1/8
K:D
F | \
D2D>B A<FF>B | A<FB>G A>FA>d | \
D2D>B A<FF>A | (3def (3AGF E2E>A |\
D2D>B A<FF>B | A<FB>G A<FA>d | \
D2D>B A<FF>A | (3Bcd (3AGF E2E:|
|:g|\
ff e<cc>e | dd A<FF>g | \
ff e<cc>A | (3Bcd (3AGF E2Eg |\
ff e<cc>e | dd A<FF>A |\
(3def (3edc (3Bcd (3AGF | (3GAB (3AGF E2E:|
